packages/components/src/components/icon/common/ic-poo-rejected.svg

<svg width="96" height="116" viewBox="0 0 96 116" fill="none" xmlns="http://www.w3.org/2000/svg">
<rect width="80.0834" height="100.173" rx="4" fill="#C6E3E3"/>
<path d="M21.7231 32.8566C20.5218 34.0587 18.9202 34.7599 17.0182 34.9603V37.5648H14.916V34.9603C13.1141 34.8601 11.4123 34.2591 10.0109 32.9568C8.90973 31.9551 8.00879 30.3523 8.00879 28.5492H11.5124C11.5124 29.5509 12.013 30.3523 12.6136 30.9534C13.3143 31.5544 14.1152 31.8549 14.916 31.9551V26.2452C14.4155 26.1451 14.015 26.1451 13.5145 26.0449C10.4113 25.544 8.50931 23.5406 8.50931 20.6356C8.50931 19.133 9.21004 17.8307 10.2111 16.829C11.3122 15.7271 12.9139 14.9257 14.8159 14.7254V12.0207H16.9181V14.9257C18.5197 15.1261 19.9212 15.7271 21.0223 16.7288C22.1235 17.8307 22.9243 19.2332 23.0244 20.8359H19.5208C19.5208 20.1347 19.1204 19.3333 18.6198 18.9326C18.2194 18.5319 17.6188 18.2314 16.9181 18.0311V23.2401C17.2184 23.3402 17.6188 23.3402 17.9191 23.3402C20.8221 23.8411 23.2246 25.6442 23.2246 28.8497C23.3247 30.6528 22.624 31.9551 21.7231 32.8566ZM14.916 17.8307C14.1152 17.9309 13.4144 18.2314 12.8138 18.7323C12.3133 19.133 12.013 19.8342 12.013 20.5354C12.013 21.8376 12.8138 22.4387 14.015 22.639C14.3154 22.7392 14.6157 22.7392 14.916 22.7392V17.8307ZM17.5187 26.7461L17.0182 26.6459V31.9551C17.819 31.8549 18.5197 31.5544 19.0203 31.0535C19.5208 30.5527 19.8211 30.0518 19.8211 29.0501C19.8211 27.5475 18.7199 26.9465 17.5187 26.7461Z" fill="white"/>
<rect x="8.00879" y="46.0795" width="45.0469" height="4.00691" rx="2" fill="white"/>
<rect x="27.0283" y="30.0518" width="45.0469" height="4.00691" rx="2" fill="white"/>
<rect x="27.0283" y="18.0311" width="45.0469" height="4.00691" rx="2" fill="white"/>
<rect x="8.00879" y="58.1002" width="45.0469" height="4.00691" rx="2" fill="white"/>
<rect x="8.00879" y="70.1209" width="45.0469" height="4.00691" rx="2" fill="white"/>
<rect x="57.0596" y="46.0795" width="15.0156" height="4.00691" rx="2" fill="white"/>
<rect x="57.0596" y="58.1002" width="15.0156" height="4.00691" rx="2" fill="white"/>
<rect x="57.0596" y="70.1209" width="15.0156" height="4.00691" rx="2" fill="white"/>
<path d="M74.5496 116.001C86.3961 116.001 95.9996 106.397 95.9996 94.5506C95.9996 82.7041 86.3961 73.1006 74.5496 73.1006C62.7031 73.1006 53.0996 82.7041 53.0996 94.5506C53.0996 106.397 62.7031 116.001 74.5496 116.001Z" fill="#EC3F3F"/>
<path fill-rule="evenodd" clip-rule="evenodd" d="M77.3377 100.001H72.6623L72 81.0006H78L77.3377 100.001ZM74.9907 103.001C75.8947 103.001 76.6223 103.283 77.1734 103.846C77.7245 104.41 78 105.132 78 106.01C78 106.876 77.7245 107.591 77.1734 108.155C76.6223 108.719 75.8947 109.001 74.9907 109.001C74.0991 109.001 73.3777 108.719 72.8266 108.155C72.2755 107.591 72 106.876 72 106.01C72 105.145 72.2755 104.427 72.8266 103.856C73.3777 103.286 74.0991 103.001 74.9907 103.001Z" fill="white"/>
</svg>

<svg width="96" height="116" fill="none" xmlns="http://www.w3.org/2000/svg"><rect width="80.083" height="100.173" rx="4" fill="#C6E3E3"/><path d="M21.723 32.857c-1.201 1.202-2.803 1.903-4.705 2.103v2.605h-2.102V34.96c-1.802-.1-3.504-.7-4.905-2.003-1.101-1.002-2.002-2.605-2.002-4.408h3.503c0 1.002.501 1.803 1.102 2.404a4.3 4.3 0 0 0 2.302 1.002v-5.71c-.5-.1-.901-.1-1.402-.2-3.103-.501-5.005-2.504-5.005-5.41 0-1.502.701-2.804 1.702-3.806 1.101-1.102 2.703-1.903 4.605-2.104v-2.704h2.102v2.905c1.602.2 3.003.801 4.104 1.803 1.102 1.102 1.902 2.504 2.002 4.107h-3.503c0-.701-.4-1.503-.901-1.903-.4-.401-1.001-.702-1.702-.902v5.21c.3.1.7.1 1.001.1 2.903.5 5.306 2.303 5.306 5.509.1 1.803-.601 3.105-1.502 4.007ZM14.916 17.83c-.8.1-1.502.4-2.102.901-.5.401-.801 1.102-.801 1.803 0 1.303.8 1.904 2.002 2.104.3.1.6.1.901.1v-4.908Zm2.603 8.915-.5-.1v5.31c.8-.101 1.5-.402 2.001-.902.5-.501.801-1.002.801-2.004 0-1.503-1.101-2.104-2.302-2.304Z" fill="#fff"/><rect x="8.009" y="46.08" width="45.047" height="4.007" rx="2" fill="#fff"/><rect x="27.028" y="30.052" width="45.047" height="4.007" rx="2" fill="#fff"/><rect x="27.028" y="18.031" width="45.047" height="4.007" rx="2" fill="#fff"/><rect x="8.009" y="58.1" width="45.047" height="4.007" rx="2" fill="#fff"/><rect x="8.009" y="70.121" width="45.047" height="4.007" rx="2" fill="#fff"/><rect x="57.06" y="46.08" width="15.016" height="4.007" rx="2" fill="#fff"/><rect x="57.06" y="58.1" width="15.016" height="4.007" rx="2" fill="#fff"/><rect x="57.06" y="70.121" width="15.016" height="4.007" rx="2" fill="#fff"/><path d="M74.55 116.001c11.846 0 21.45-9.604 21.45-21.45 0-11.847-9.604-21.45-21.45-21.45-11.847 0-21.45 9.603-21.45 21.45 0 11.846 9.603 21.45 21.45 21.45Z" fill="#EC3F3F"/><path fill-rule="evenodd" clip-rule="evenodd" d="M77.338 100.001h-4.676l-.662-19h6l-.662 19Zm-2.347 3c.904 0 1.631.282 2.182.845.552.564.827 1.286.827 2.164 0 .866-.275 1.581-.827 2.145-.55.564-1.278.846-2.182.846-.892 0-1.613-.282-2.164-.846-.552-.564-.827-1.279-.827-2.145 0-.865.275-1.583.827-2.154.55-.57 1.272-.855 2.164-.855Z" fill="#fff"/></svg>
